X:12
T:An Outlandish Rover
T:Lady Isabel and the Elf Knight
C:Trad
B:Bronson
O:Vaughan Williams, JFSS, IV (I9IO), p. I2I (8). Sung by
O:Mr. Verrall, Horsham, December 22, I904.
M:6/8
L:1/8
K:Gmix
d | GGG cde | d2 d G2 SG |
AAA c2 c | d3 z2 Sd | def gdc |
BAG AB Sc | ded cBA | G3-G2 |]
